X: 42318
T: Wee Bit Coggie, The
R: reel
M: 4/4
K: Amajor
|:eAcA eAfA|eAcA Bcdf|eAcA eaga|fdBd cA (3AAA:|
a2 ed cAfg|a2ga fdBg|a2 ed cde=g|fdBd cAAg|
a2 ed cAfg|a2 ec fB (3BBB|AcBe dfBa|gefg a2 af|

